X:1
T:Si vous avez
T:Pierre De Villiers
T:Source : Livre XXV de 28 chansons nouvelles à 4 parties---Paris---P.Attaingnant---1547. Editor : André Vierendeels (28/07/18) Notes : Original clefs : C1, C3, C4, F4 Original note values have been halved Editorial accidentals above the staff Square brackets indicate ligatures  
T:Si vous avez
T:©
T:©
T:©
T:©
T:©
C:Pierre De Villiers
Z:©
%%score [ 1 [ 2 3 ] 4 ]
L:1/8
Q:1/4=120
M:2/2
K:F
V:1 treble nm="Soprano" snm="S"
V:2 treble-8 nm="Tenor 1" snm="T 1"
V:3 treble-8 nm="Tenor 2" snm="T 2"
V:4 bass nm="Bass" snm="B"
V:1
 F4 F2 E2 | D4 z2 D2 | D2 C2 DEFG | AB c2 A2 B2- | B2 AG F4 | z2 G2 G2 G2 | F2 A2 A3 G | %7
w: Si vous a-|vez de|me veoir tel- * * *|* * * l'en- vi-|* * * e,|que iay de|vous ne fai- ctes|
w: Au corps po-|vez le|sur- plus de _ _ _|_ _ _ ma vi-|* * * e,|par voz ver-|tus à ia- mais|
 F2 E2 D2 d2 | c2 A2 c3 B |"^#" AG G4 F2 |1 G8 :|2 G8 || z2 d2 c2 B2 | A8 | z2 G2 GABc | %15
w: que man- der, ne|faic- tes que _|_ _ _ man-|der,|der,|car mon es-|prit|ne faict _ _ _|
w: com- man- der, à|ia- mais com- *|* * * man-||||||
 d3 c B2 A2- | A2 G2 A2 A2 | B3 A G2 F2 |"^b" E4 D4 | z2 G2 G2 F2 | G2 G2 D3 E | FEFG A2 B2- | %22
w: que _ _ de-|* man- der au|corps _ _ _|cap- tif,|le loi- sir|de vous veoir, _|_ _ _ _ _ _|
w: |||||||
 B2 A2 G4 | !fermata!F8 |: F4 F2 E2 | D4 z2 D2 | D2 C2 DEFG | AB c2 A2 B2- | B2 AG F4 | %29
w: * de vous|veoir.|En at- ten-|dant de|se re- com- * * *|* * * man- der|_ _ _ _|
w: |||||||
 z2 G2 G2 G2 | F2 A2 A3 G | F2 E2 D2 d2 | c2 A2 c3 B | AG G4 F2 | G8 :| %35
w: à vous, il|faict par e- *|* script son deb-|voir, par e- script|son- * * deb-|voir.|
w: ||||||
V:2
 d6 c2 | B4 A2 A2 | A2 A2 Bcde | f2 e3 d d2- | d2 c2 d4- | d4 z2 d2- | d2 f4 e2 | d2 B2 B3 A | %8
w: Si vous|a- vez de|me veoir tel- * * *|* l'en- * vi-|* * e,|_ que|_ iay de|vous ne fai- ctes|
w: Au corps|po- vez le|sur- plus de _ _ _|_ ma _ vi-|* * e,|_ par|_ voz ver-|tus à ia- mais|
 G2 FG AF G2- | GABc d4 |1 B8 :|2 B4 z2 d2 || c2 B2 A2 d2 | f6 c2 | _e2 e2 B4 | f6 f2 | d4 d4 | %17
w: que man- * * * *||der,|der, car|mon es- prit ne|faict que|com- man- der,|au corps|cap- tif,|
w: com- man- * * * *|||||||||
 z2 B4 B2 | G4 G2 d2 | _e2 e2 d2 d2 | G4 z2 G2 | F2 D2 F2 G2 | D4 d4 | !fermata!d8 |: d6 c2 | %25
w: au corps|cap- tif, le|loi- sir de vous|veoir, le|loi- sir de vous|voir, vous|veoir.|En at-|
w: ||||||||
 B4 A2 A2 | A2 A2 Bcde | f2 e3 d d2- | d2 c2 d4- | d4 z2 d2- | d2 f4 e2 | d2 B2 B3 A | %32
w: ten- dant de|se re- com- * * *||* man- der|_ à|_ vous, il|faict par e- *|
w: |||||||
 G2 FG AF G2- | GABc d4 | B8 :| %35
w: * script _ _ _ son|_ _ _ _ deb-|voir.|
w: |||
V:3
 A4 BAGF | G2 G2 F4- | F4 z4 | z2 G2 G2 F2 | G2 G2 A4 | G2 B2 B2 B2 | A2 d2 c3 B | A2 G2 F2 f2 | %8
w: Si vous _ _ _|_ a- vez|_|de me veoir|tel- l'en- vi-|e, que iay de|vous ne fai- *|* ctes que man-|
w: Au corps _ _ _|_ po- vez|_|le sus- plus|de ma vi-|e, par voz ver-|tus à ia- *|* mais com- man-|
 e2 d2 cded | cBAG A4 |1 G8 :|2 G8 || z8 | z2 d2 c2 A2 | c2 c2 G2 GA |"^b" Bcde d2 c2 | B4 A2 F2 | %17
w: der, que man- * * *||der,|der,||car mon es-|prit ne faict que _|_ _ _ _ _ de-|man- der au|
w: der, com- man- * * *|||||||||
 GFGA Bc d2- | dc c4 B2 | c4 z4 | z2 c2 c2 B2 | c2 d3 cBA | G2 A2 B4 | !fermata!A8 |: A4 BAGF | %25
w: corps _ _ _ _ _ _|_ _ cap- *|tif,|le loi- sir|de _ _ _ _|_ _ vous|veoir.|En at- * * *|
w: ||||||||
 G4 F4- | F4 z4 | z2 G2 G2 F2 | G4 A4 | G2 B2 B2 B2 | A2 d2 c3 B | A2 G2 F2 f2 |"^b" e2 d2 cded | %33
w: ten- dant|_|de se re-|com- man-|der à vous, il|faict par e- *|* script son deb-|voir, par e- * * *|
w: ||||||||
 cBAG A2 A2 | G8 :| %35
w: script _ _ _ son deb-|voir.|
w: ||
V:4
 D,4 B,,2 C,2 | G,,A,,B,,C, D,4 | z4 z2 D,2 | D,2 C,2 D,2 D,2 | _E,4 D,4 | z2 G,,2 G,,A,,B,,C, | %6
w: Si vous a-|vez, _ _ _ _|de|me veoir tel- l'en-|vi- e,|que par _ _ _|
w: Au corps po-|vez, _ _ _ _|le|sus- plus de ma|vi- e,|par voz _ _ _|
 D,C,D,E, F,2 C,2 | D,2 G,,2 B,,2 B,,2 | C,2 D,2 A,,2 C,2 | _E,4 D,4 |1 G,,8 :|2 G,,8 || %12
w: _ _ _ _ vous ne|fai- ctes que man-|der, que man- *||der,|der,|
w: _ _ _ _ _ ver-|tus à ia- mais|com- * * *|man- *|||
 z4 z2 G,2 | F,2 D,2 F,2 F,2 | C,2 C,2 _E,2 E,2 | B,,2 B,4 F,2 | G,4 D,4 | z2 _E,4 B,,2 | %18
w: car|mon es- prit ne|faict que de- man-|der au corps|cap- tif,|au corps|
w: ||||||
 C,4 G,,4 | C,4 D,2 D,2 | E,2 C,2 G,4 | z4 z2 G,,2 | G,,2 F,,2 G,,2 G,,2 | !fermata!D,8 |: %24
w: cap- tif,|le loi- sir|de vous veoir,|le|loi- sir de vous|veoir.|
w: ||||||
 D,4 B,,2 C,2 | G,,A,,B,,C, D,4 | z4 z2 D,2 | D,2 C,2 D,4 | _E,4 D,4 | z2 G,,2 G,,A,,B,,C, | %30
w: En at- ten-|dant _ _ _ _|de|se re- com-|man- der,|à vous _ _ _|
w: ||||||
"^#" D,C,D,E, F,2 C,2 | D,2 G,,2 B,,2 B,,2 | C,2 D,2 A,,2 C,2 |"^b" _E,4 D,4 | G,,8 :| %35
w: _ _ _ _ _ il|faict par e- script|son deb- * voir,|deb- *|voir.|
w: |||||

